!!!COM: Palestrina, Giovanni Perluigi da
!!!OPR: Tu es Petrus (1887)
!!!OTL: Kyrie
**kern	**kern	**kern	**kern	**kern	**kern
*Ibass	*Ibarit	*Itenor	*Icalto	*Icant	*Icant
!Bassus	!Baritone	!Tenor	!Altus	!Cantus 2	!Cantus 1
*clefF4	*clefF4	*clefGv2	*clefG2	*clefG2	*clefG2
*k[]	*k[]	*k[]	*k[]	*k[]	*k[]
*G:mix	*G:mix	*G:mix	*G:mix	*G:mix	*G:mix
*M4/2	*M4/2	*M4/2	*M4/2	*M4/2	*M4/2
=1	=1	=1	=1	=1	=1
1.G	1.B	1.d	0r	0r	0r
4F#	4A	2d	.	.	.
4E	4G	.	.	.	.
=2	=2	=2	=2	=2	=2
2F#	2A	1d	0r	0r	0r
2G	2B	.	.	.	.
4C	1c	1e	.	.	.
4D	.	.	.	.	.
4E	.	.	.	.	.
4F	.	.	.	.	.
=3	=3	=3	=3	=3	=3
2G	1B	2d	0r	0r	0r
2G	.	1e	.	.	.
1A	1c	.	.	.	.
.	.	4d	.	.	.
.	.	4c	.	.	.
=4	=4	=4	=4	=4	=4
1G	2d	2.B	1.g	1.b	1.dd
.	4G	.	.	.	.
.	4A	4c	.	.	.
1r	4B	1d	.	.	.
.	4c	.	.	.	.
.	[2d	.	4f#	4a	2dd
.	.	.	4e	4g	.
=5	=5	=5	=5	=5	=5
0r	4d]	0r	2f#	2a	1dd
.	4c	.	.	.	.
.	2B	.	2g	2b	.
.	2A	.	4c	1cc	1ee
.	.	.	4d	.	.
.	2c	.	4e	.	.
.	.	.	4f	.	.
=6	=6	=6	=6	=6	=6
0r	1G	0r	1g	1b	2dd
.	.	.	.	.	1ee
.	1r	.	1a	1cc	.
.	.	.	.	.	4dd
.	.	.	.	.	4cc
=7	=7	=7	=7	=7	=7
1r	0r	0r	1g	1dd	1b
2r	.	.	1c	[1ee	1cc
[2c	.	.	.	.	.
=8	=8	=8	=8	=8	=8
2c]	0r	1G	2r	2ee]	1g
4B	.	.	2g	4dd	.
4A	.	.	.	4cc	.
2B	.	2G	2g	2dd	1r
2c	.	2g	2e	2ee	.
=9	=9	=9	=9	=9	=9
4F	1r	2f	1a	2cc	1r
4G	.	.	.	.	.
4A	.	2f	.	2cc	.
4B	.	.	.	.	.
2c	2r	1e	[1g	1ee	2r
2c	[2c	.	.	.	[2ee
=10	=10	=10	=10	=10	=10
1.G	2c]	2r	1g]	0gg	2ee]
.	4B	2g	.	.	4dd
.	4A	.	.	.	4cc
.	2B	2g	2r	.	2dd
2C	2c	2e	2g	.	2ee
=11	=11	=11	=11	=11	=11
2r	4F	1f	2a	0r	2cc
.	4G	.	.	.	.
2F	4A	.	2a	.	2cc
.	4B	.	.	.	.
2C	1c	1e	2g	.	1cc
2C	.	.	2g	.	.
=12	=12	=12	=12	=12	=12
2G	2B	0d	1.g	1b	2dd
2G	2G	.	.	.	1dd
1D	1A	.	.	1a	.
.	.	.	2f#	.	2dd
=13	=13	=13	=13	=13	=13
0r	0r	0r	2g	2b	2dd
.	.	.	2e	2cc	2ee
.	.	.	4d	1dd	1ff
.	.	.	4e	.	.
.	.	.	4f	.	.
.	.	.	4g	.	.
=14	=14	=14	=14	=14	=14
0r	0r	1r	2a	2.cc	2.ee
.	.	.	2e	.	.
.	.	.	.	4b	4dd
.	.	2r	2f	2a	2cc
.	.	[2g	2g	[2dd	2b
=15	=15	=15	=15	=15	=15
1r	1r	2g]	1d	4dd]	1a
.	.	.	.	4cc	.
.	.	2f#	.	2a	.
[1G	2r	2g	1r	1b	4g
.	.	.	.	.	4a
.	[2B	2e	.	.	4b
.	.	.	.	.	4cc
=16	=16	=16	=16	=16	=16
2G]	2B]	1.d	0r	2g	1dd
2F#	2A	.	.	2a	.
2G	2B	.	.	1g	1r
2E	2c	2e	.	.	.
=17	=17	=17	=17	=17	=17
4D	1d	1f	0r	0r	2r
4E	.	.	.	.	.
4F	.	.	.	.	1a
4G	.	.	.	.	.
2A	2.c	2.e	.	.	.
2E	.	.	.	.	2g
.	4B	4d	.	.	.
=18	=18	=18	=18	=18	=18
2F	2A	2c	2r	2r	2a
2G	2G	2B	1g	2g	2b
1D	2.d	1A	.	1a	1dd
.	.	.	2f#	.	.
.	4c	.	.	.	.
=19	=19	=19	=19	=19	=19
0r	2B	1r	2g	2b	2dd
.	2c	.	2e	2g	1cc
.	1G	2r	1d	1dd	.
.	.	[2g	.	.	2b
=20	=20	=20	=20	=20	=20
1r	2C	2g]	2e	0r	2cc
.	2D	2f#	4d	.	2a
.	.	.	4c	.	.
2r	2E	2g	2B	.	1g
[2c	2C	2e	2c	.	.
=21	=21	=21	=21	=21	=21
2c]	1G	1d	2d	2r	2g
2B	.	.	2G	1gg	2dd
2c	1r	2e	2g	.	2cc
2A	.	2c	2a	2ff#	2cc
=22	=22	=22	=22	=22	=22
2.G	0r	2r	2d	2gg	1.b
.	.	2G	1g	2ee	.
4A	.	.	.	.	.
2B	.	2G	.	2dd	.
2c	.	2c	2e	2ee	4a
.	.	.	.	.	4g
=23	=23	=23	=23	=23	=23
1F	0r	4A	2.f	2dd	1a
.	.	4B	.	.	.
.	.	4c	.	1cc	.
.	.	4A	4e	.	.
1G	.	2B	1d	.	[1g
.	.	2G	.	2b	.
=24	=24	=24	=24	=24	=24
2.C	2r	2r	2.c	4cc	1g]
.	.	.	.	4dd	.
.	1c	2.g	.	4ee	.
4D	.	.	8B	4ff	.
.	.	.	8A	.	.
4E	.	.	1G	1gg	2r
4F	.	8f	.	.	.
.	.	8e	.	.	.
2G	2B	2d	.	.	[2gg
=25	=25	=25	=25	=25	=25
2C	2c	2e	1r	1r	2gg]
2D	2A	4d	.	.	2ff#
.	.	4c	.	.	.
2E	2.G	2B	1g	2r	2gg
2C	.	2c	.	[2gg	2ee
.	4A	.	.	.	.
=26	=26	=26	=26	=26	=26
2G	2B	2d	2g	2gg]	2dd
2C	2c	1c	2g	2gg	2ee
1F	2A	.	1a	4ff	2cc
.	.	.	.	4ee	.
.	[2d	2A	.	4dd	[2dd
.	.	.	.	4cc	.
=27	=27	=27	=27	=27	=27
0G	4d]	1d	2.g	4b	2dd]
.	4c	.	.	4a	.
.	2.B	.	.	4b	2g
.	.	.	8f	4cc	.
.	.	.	8e	.	.
.	.	2.B	2d	[1dd	1b
.	4A	.	.	.	.
.	2G	.	[2g	.	.
.	.	4c	.	.	.
=28	=28	=28	=28	=28	=28
0D	0A	0d	2g]	1dd]	1a
.	.	.	4f#	.	.
.	.	.	4e	.	.
.	.	.	1f#	1a	1dd
=29	=29	=29	=29	=29	=29
0G	0G	0d	0g	0b	0dd
*	*	*	*	*-	*-
!! Christe
*Itenor	*Icalto	*Icant	*Icant
!Tenor	!Altus	!Cantus 2	!Cantus 1
*clefGv2	*clefG2	*clefG2	*clefG2
*k[]	*k[]	*k[]	*k[]
*G:mix	*G:mix	*G:mix	*G:mix
*M4/2	*M4/2	*M4/2	*M4/2
=30	=30	=30	=30
1G	1g	1dd	1b
2c	2g	2ee	2cc
2B	2g	2dd	2dd
=31	=31	=31	=31
1c	1g	1cc	1ee
1G	[1g	2b	2dd
.	.	2dd	2b
=32	=32	=32	=32
1.c	0g]	4ee	4cc
.	.	4dd	4b
.	.	4ee	4cc
.	.	4ff	4dd
.	.	1gg	2ee
2B	.	.	2dd
=33	=33	=33	=33
2.A	2r	2ff	2.cc
.	1cc	2ee	.
4G	.	.	4b
2F	.	1dd	2a
2G	2b	.	4g
.	.	.	4f
=34	=34	=34	=34
2A	2.a	0cc	2e
4F	.	.	4a
4G	4g	.	4b
4A	2f	.	4cc
4B	.	.	4dd
[2c	2e	.	4ee
.	.	.	4cc
=35	=35	=35	=35
2c]	2d	2r	1dd
2B	1g	2g	.
1A	.	[1cc	2r
.	2f#	.	2cc
=36	=36	=36	=36
1G	1g	2cc]	2ee
.	.	2b	2dd
1r	2c	1cc	1ee
.	[2cc	.	.
=37	=37	=37	=37
0r	2cc]	1g	2dd
.	2b	.	1gg
.	1a	[1cc	.
.	.	.	2ff
=38	=38	=38	=38
0r	1g	2cc]	2ee
.	.	2b	2.dd
.	2f	2a	.
.	.	.	4cc
.	2g	[2g	2b
=39	=39	=39	=39
2r	2d	2g]	1a
2d	2a	2f#	.
2g	2b	2g	2r
2f#	2a	2d	[2dd
=40	=40	=40	=40
1g	2b	4g	2dd]
.	.	4a	.
.	2g	4b	1gg
.	.	4cc	.
1d	1a	1dd	.
.	.	.	2ff#
=41	=41	=41	=41
1.g	1b	2.dd	1gg
.	.	4cc	.
.	2g	2b	1dd
2f	2a	2a	.
=42	=42	=42	=42
2.e	1b	0g	2.gg
4d	.	.	4ff
[1c	2cc	.	[1ee
.	4c	.	.
.	4d	.	.
=43	=43	=43	=43
2c]	4e	2r	2ee]
.	4f	.	.
2B	1g	2g	2dd
1A	.	[1cc	2ee
.	2f#	.	2cc
=44	=44	=44	=44
1G	1g	2cc]	2r
.	.	2b	2g
2r	2r	2ee	2cc
2G	2d	2dd	2b
=45	=45	=45	=45
2c	2e	2g	2cc
2B	2d	2dd	1g
1c	1e	4cc	.
.	.	4dd	.
.	.	4ee	[2cc
.	.	4ff	.
=46	=46	=46	=46
1G	1d	1gg	2cc]
.	.	.	2b
[1c	2c	1r	2a
.	[2e	.	2g
=47	=47	=47	=47
2c]	2e]	1g	2cc
2B	2d	.	2dd
2A	2c	2cc	1ee
2G	[2e	2b	.
=48	=48	=48	=48
1A	4e]	1cc	1r
.	4c	.	.
.	1f	.	.
2.c	.	2g	2r
.	2e	4cc	2g
4B	.	4dd	.
=49	=49	=49	=49
2A	2c	4ee	2cc
.	.	4ff#	.
2G	2d	1gg	2b
1A	1c	.	[1cc
.	.	2ff	.
=50	=50	=50	=50
1G	2r	2ee	2cc]
.	2d	4dd	4b
.	.	4cc	4a
1r	2g	2.dd	2b
.	2f#	.	2a
.	.	4cc	.
=51	=51	=51	=51
0r	1g	1b	2g
.	.	.	1gg
.	1d	1a	.
.	.	.	2ff
=52	=52	=52	=52
1G	2.g	1b	2ee
.	.	.	2dd
.	4f	.	.
2c	2e	[1g	2cc
2B	2d	.	[2dd
=53	=53	=53	=53
1c	1e	1g]	4dd]
.	.	.	4cc
.	.	.	1cc
1G	1d	2r	.
.	.	[2gg	2b
=54	=54	=54	=54
1.c	2e	2gg]	1cc
.	2a	2ff	.
.	1g	2ee	2r
2B	.	2dd	2g
=55	=55	=55	=55
2A	2r	2cc	2a
2G	2d	2.dd	2b-
2F	2f	.	2a
.	.	4cc	.
2A	2c	[2cc	2f
=56	=56	=56	=56
1G	1d	2cc]	1g
.	.	2b	.
[1F	[1f	2.cc	2.a
.	.	4b	4b
=57	=57	=57	=57
2F]	0f]	0a	0cc
2G	.	.	.
2A	.	.	.
2B	.	.	.
=58	=58	=58	=58
0c	0e	0g	0cc
==	==	==	==
*-	*-	*-	*-
!!!CDT: 1525/^1526/-1594/2/2
!!!OCY: Italia
!!!AGN: Mass (Parody)
!!!AST: renaissance, vocal
!!!ASW: Motet 1572 (Palestrina)
!!!PWK: Masses, Book 11
!!!RNB: Cadence finals: C,D
!!!YOR: Le Opere Complete, v. 28, p. 268
!!!YOO: Rome, Italy: Fratelli Scalera
!!!END: 1992//
!!!EED: John Miller
!!!YEC: Copyright 2000, John Miller
!!!YEN: United States of America
!!!YEM: Rights to all derivative electronic formats reserved.
!!!YEM: Refer to licensing agreement for further details.
!!!YEM: This file must be accompanied by the licensing agreement.
!!!YEM: A copy of the licensing agreement may be found at http://www.music-cog.ohio-state.edu/HumdrumDatabases/Palestrina/license.txt
!!!EMD: converted to Humdrum by Bret Aarden
